style-guide/src/assets/logo.svg

<?xml version="1.0" encoding="UTF-8"?>
<svg width="33px" height="24px" viewBox="0 0 33 24" version="1.1" xmlns="http://www.w3.org/2000/svg" xmlns:xlink="http://www.w3.org/1999/xlink">
    <!-- Generator: Sketch 49.1 (51147) - http://www.bohemiancoding.com/sketch -->
    <title>Fill 1</title>
    <desc>Created with Sketch.</desc>
    <defs></defs>
    <g id="Page-1" stroke="none" stroke-width="1" fill="none" fill-rule="evenodd">
        <path d="M0,11.7833143 C0,10.1568 1.32215432,8.83748571 2.95370512,8.83748571 C4.58456837,8.83748571 5.90741024,10.1568 5.90741024,11.7833143 C5.90741024,13.4105143 4.58456837,14.7291429 2.95370512,14.7291429 C1.32215432,14.7291429 0,13.4105143 0,11.7833143 L0,11.7833143 Z M20.7474408,14.7291429 C19.1165775,14.7291429 17.7937357,13.4105143 17.7937357,11.7833143 C17.7937357,10.1568 19.1165775,8.83748571 20.7474408,8.83748571 C22.3789916,8.83748571 23.7018335,10.1568 23.7018335,11.7833143 C23.7018335,13.4105143 22.3789916,14.7291429 20.7474408,14.7291429 L20.7474408,14.7291429 Z M20.7481283,0 C14.2226127,0 8.93262032,5.27588571 8.93262032,11.7833143 C8.93262032,18.2914286 14.2226127,23.5673143 20.7481283,23.5673143 C27.273644,23.5673143 32.5629488,18.2914286 32.5629488,11.7833143 C32.5629488,5.27588571 27.273644,0 20.7481283,0 L20.7481283,0 Z" id="Fill-1" fill="#FFFFFF"></path>
    </g>
</svg>

<svg width="33" height="24" viewBox="0 0 33 24" xmlns="http://www.w3.org/2000/svg">
  <path d="M0 11.783a2.95 2.95 0 0 1 2.954-2.946 2.95 2.95 0 0 1 2.953 2.946 2.95 2.95 0 0 1-2.953 2.946A2.95 2.95 0 0 1 0 11.783zm20.747 2.946a2.95 2.95 0 0 1-2.953-2.946 2.95 2.95 0 0 1 2.953-2.946 2.95 2.95 0 0 1 2.955 2.946 2.95 2.95 0 0 1-2.955 2.946zM20.748 0C14.223 0 8.933 5.276 8.933 11.783c0 6.508 5.29 11.784 11.815 11.784 6.526 0 11.815-5.276 11.815-11.784C32.563 5.276 27.273 0 20.748 0z" fill="#FFF" fill-rule="evenodd"/>
</svg>
